X:484
T:When She came ben She Bobed. EHo.484
A:England; East Yorkshire
M:6/8
L:1/8
Q:3/8=120
B:Edward Holmes MS, c1846, Beverley, Yorkshire.
N:"When She Cam Ben She Bobed" is a poem by Robert Burns.
N:Ben = in; Bobit/bobed = curtsied
O:
Z:Village Music Project 2018, Jake Wade. Beverley, East Yorks
K:Ador
yE | ABA Bcd | BGG G2B | ABA aba | gee e2f |
gag gfe | dec Bcd | e2e =fed | cAA A2 :|
|: e | a2a abc' | bgg "tr"g2e | a2a aba | gee e2f |
g>ag gfe | dgc Bcd | e2e e3/=f/e/d/ | cAA A2 :|

